!!!COM: Spano, Donato Antonio
!!!CDT:
!!!PTL: Il primo libro de madrigali a cinque voci
!!!PPP: Naples
!!!PPR: Bonino
!!!PDT: 1608
!!!PUB-format:
!!!RISM: S 4049
!!!rime: 560
!!!OTL: Tarquinia, se rimiri
!!!AGN: Madrigal
!!!SCT: Trm0560p
!!!SCA: Trm0560p
!!!original-voices: 5
!!!extant-voices: 5
!!!complete: Y
!!!final: G
**kern	**text	**kern	**text	**kern	**text	**kern	**text	**kern	**text
*part5	*part5	*part4	*part4	*part3	*part3	*part2	*part2	*part1	*part1
*staff5	*staff5	*staff4	*staff4	*staff3	*staff3	*staff2	*staff2	*staff1	*staff1
*I"Basso	*	*I"Quinto	*	*I"Tenore	*	*I"Alto	*	*I"Canto	*
*I'B	*	*I'V	*	*I'T	*	*I'A	*	*I'C	*
*oclefF4	*	*oclefC4	*	*oclefC4	*	*oclefC3	*	*oclefC2	*
*clefF4	*	*clefGv2	*	*clefGv2	*	*clefG2	*	*clefG2	*
*k[]	*	*k[]	*	*k[]	*	*k[]	*	*k[]	*
*omet(C|)	*	*omet(C|)	*	*omet(C|)	*	*omet(C|)	*	*omet(C|)	*
*M4/2	*	*M4/2	*	*M4/2	*	*M4/2	*	*M4/2	*
=1	=1	=1	=1	=1	=1	=1	=1	=1	=1
0r	.	1r	.	0r	.	2r	.	2g	Men-
.	.	.	.	.	.	2d	Men-	4a	-tre,
.	.	.	.	.	.	.	.	2b	mia
.	.	4r	.	.	.	4e	-tre,	.	.
.	.	4d	I	.	.	2f	mia	8a	stel-
.	.	.	.	.	.	.	.	8b	-la,
.	.	8A	bei	.	.	.	.	2cc	mi-
.	.	8B	ce-	.	.	.	.	.	.
.	.	8c	-le-	.	.	8e	stel-	.	.
.	.	8A	-sti	.	.	8f	-la,	.	.
=2	=2	=2	=2	=2	=2	=2	=2	=2	=2
2r	.	8BL	gi-	2G	Men-	2g	mi-	2b	-ri
.	.	8A	.	.	.	.	.	.	.
.	.	8B	.	.	.	.	.	.	.
.	.	8cJ	.	.	.	.	.	.	.
2D	Men-	4d	.	4A	-tre,	2f#X	-ri	2r	.
.	.	4D	-ri,	2B	mia	.	.	.	.
4E	-tre,	1r	.	.	.	2r	.	4r	.
2F	mia	.	.	8A	stel-	.	.	4dd	I
.	.	.	.	8B	-la,	.	.	.	.
.	.	.	.	2c	mi-	4r	.	8a	bei
.	.	.	.	.	.	.	.	8b	ce-
8E	stel-	.	.	.	.	8r	.	8cc	-le-
8F	-la,	.	.	.	.	8a	I	8a	-sti
=3	=3	=3	=3	=3	=3	=3	=3	=3	=3
4G	mi-	4r	.	2B	-ri	8e	bei	8bL	gi-
.	.	.	.	.	.	8f	ce-	8a	.
4E	-ri	4e	<I	.	.	8g	-le-	8b	.
.	.	.	.	.	.	8e	-sti	8ccJ	.
2r	.	8B	bei	4r	.	8f#XL	gi-	2dd	.
.	.	8c	ce-	.	.	8e	.	.	.
.	.	8d	-le-	4D	I	8f#X	.	.	.
.	.	8B	-sti	.	.	8gJ	.	.	.
4r	.	8cL	gi-	8F	bei	2a	.	1cc	-ri,
.	.	8B	.	8G	ce-	.	.	.	.
4F	I	8c	.	8A	-le-	.	.	.	.
.	.	8dJ	.	8F	-sti	.	.	.	.
8C	bei	4e	.	8GL	gi-	2g	-ri,	.	.
8D	ce-	.	.	8F	.	.	.	.	.
8E	-le-	4E	-ri,>	8G	.	.	.	.	.
8C	-sti	.	.	8AJ	.	.	.	.	.
=4	=4	=4	=4	=4	=4	=4	=4	=4	=4
8DL	gi-	4r	.	2B-X	.	2r	.	1r	.
8C	.	.	.	.	.	.	.	.	.
8D	.	4.F	Men-	.	.	.	.	.	.
8EJ	.	.	.	.	.	.	.	.	.
2F	.	.	.	2A	-ri,	4.c	Men-	.	.
.	.	8G	-tre,	.	.	.	.	.	.
.	.	2A	mia	.	.	.	.	.	.
.	.	.	.	.	.	8d	-tre,	.	.
2C	-ri,	.	.	1r	.	2.e	mia	4r	.
.	.	8G	stel-	.	.	.	.	4cc	<I
.	.	8A	-la,	.	.	.	.	.	.
4r	.	2B-X	mi-	.	.	.	.	8g	bei
.	.	.	.	.	.	.	.	8a	ce-
4G	I	.	.	.	.	8d	stel-	8b-X	-le-
.	.	.	.	.	.	8e	-la,	8g	-sti
=5	=5	=5	=5	=5	=5	=5	=5	=5	=5
8D	bei	2A	-ri	4r	.	2f	mi-	8aL	gi-
8E	ce-	.	.	.	.	.	.	8g	.
8F	-le-	.	.	4d	<I	.	.	8a	.
8D	-sti	.	.	.	.	.	.	8bJ	.
8EL	gi-	2r	.	8G	bei	4e	-ri	2cc	.
8D	.	.	.	8A	ce-	.	.	.	.
8E	.	.	.	8c	-le-	8r	.	.	.
8FJ	.	.	.	8A	-sti	8a	I	.	.
4G	.	4r	.	8BL	gi-	8e	bei	1b	-ri,>
.	.	.	.	8A	.	8f#X	ce-	.	.
4E	-ri,	4e	I	8B	.	8g	-le-	.	.
.	.	.	.	8cJ	.	8e	-sti	.	.
2r	.	8B	bei	2d	.	8f#XL	gi-	.	.
.	.	8c	ce-	.	.	8e	.	.	.
.	.	8d	-le-	.	.	8f#X	.	.	.
.	.	8B	-sti	.	.	8gJ	.	.	.
=6	=6	=6	=6	=6	=6	=6	=6	=6	=6
4r	.	8cL	gi-	2A	-ri,>	1a	.	4r	.
.	.	8B	.	.	.	.	.	.	.
4A	I	8c	.	.	.	.	.	4ee	<I
.	.	8dJ	.	.	.	.	.	.	.
8AA	bei	2e	.	4r	.	.	.	8cc	bei
8BB	ce-	.	.	.	.	.	.	8dd	ce-
8C	-le-	.	.	4A	I	.	.	8ee	-le-
8AA	-sti	.	.	.	.	.	.	8cc	-sti
8BBL	gi-	1d	-ri,	8D	bei	2g	-ri,	4.dd	gi-
8AA	.	.	.	8C	ce-	.	.	.	.
8BB	.	.	.	8D	-le-	.	.	.	.
8CJ	.	.	.	8E	-sti	.	.	16ccL	.
.	.	.	.	.	.	.	.	16bJ	.
2D	.	.	.	2F#X	gi-	2r	.	2a	.
=7	=7	=7	=7	=7	=7	=7	=7	=7	=7
2GG	-ri,	4r	.	1G	-ri,	1r	.	1b	-ri,>
.	.	4D	Il	.	.	.	.	.	.
4r	.	4d	ciel	.	.	.	.	.	.
4GG	Il	2d	es-	.	.	.	.	.	.
4G	ciel	.	.	2r	.	4r	.	1r	.
2G	es-	8c	-ser	.	.	4G	Il	.	.
.	.	8B	vor-	.	.	.	.	.	.
.	.	[2e	-re-	4r	.	4g	ciel	.	.
8F	-ser	.	.	4C	I	[4g	es-	.	.
8E	vor-	.	.	.	.	.	.	.	.
=8	=8	=8	=8	=8	=8	=8	=8	=8	=8
1A	-re-	2e]	.	4c	ciel	4g]	.	4r	.
.	.	.	.	2c	es-	8f	-ser	4c	Il
.	.	.	.	.	.	8e	vor-	.	.
.	.	2A	-i:	.	.	2a	-re-	4cc	ciel
.	.	.	.	8B	-ser	.	.	2cc	es-
.	.	.	.	8A	vor-	.	.	.	.
1D	-i:	1r	.	2d	-re-	1f#X	-i:	.	.
.	.	.	.	.	.	.	.	8b	-ser
.	.	.	.	.	.	.	.	8a	vor-
.	.	.	.	2A	-i:	.	.	4dd	-re-
.	.	.	.	.	.	.	.	4a	-i:
=9	=9	=9	=9	=9	=9	=9	=9	=9	=9
0r	.	4r	.	4r	.	4r	.	4r	.
.	.	4G	Per-	4d	Per-	4g	Per-	4b	Per-
.	.	4.c	-ché	4.e	-ché	4.g	-ché	4.cc	-ché
.	.	8c	ne	8e	ne	8g	ne	8cc	ne
.	.	4c	gl'oc-	4e	gl'oc-	4g	gl'oc-	4cc	gl'oc-
.	.	4F#X	-chi	4d	-chi	4a	-chi	4dd	-chi
.	.	2G	mie-	2d	mie-	2g	mie-	2b	mie-
=10	=10	=10	=10	=10	=10	=10	=10	=10	=10
4r	.	2C	-i	2e	-i	2g	-i	4cc	-i
8C	Fi-	.	.	.	.	.	.	8g	Fi-
8D	-so	.	.	.	.	.	.	8f	-so
4E	tu	2r	.	2r	.	4r	.	4e	tu
8D	ri-	.	.	.	.	8d	Fi-	8f	ri-
8C	-vol-	.	.	.	.	8e	-so	8g	-vol-
2D	-ges-	2r	.	4r	.	4f	tu	2f	-ges-
.	.	.	.	8A	Fi-	8e	ri-	.	.
.	.	.	.	8B	-so	8d	-vol-	.	.
2AA	-si,	4r	.	4c	tu	2e	-ges-	2e	-si,
.	.	8E	Fi-	8B	ri-	.	.	.	.
.	.	8F	-so	8A	-vol-	.	.	.	.
=11	=11	=11	=11	=11	=11	=11	=11	=11	=11
1r	.	4G	tu	2B-X	-ges-	4d	-si,	1r	.
.	.	8F	ri-	.	.	8f	<Fi-	.	.
.	.	8E	-vol-	.	.	8g	-so	.	.
.	.	2F	-ges-	4A	-si,	4a	tu	.	.
.	.	.	.	8c	<Fi-	8g	ri-	.	.
.	.	.	.	8d	-so	8f	-vol-	.	.
4r	.	2E	-si	4e	tu	1g	-ges-	4r	.
8G	<Fi-	.	.	8d	ri-	.	.	8b	<Fi-
8A	-so	.	.	8c	-vol-	.	.	8a	-so
4B-X	tu	2r	.	[2d	-ges-	.	.	4g	tu
8A	ri-	.	.	.	.	.	.	8a	ri-
8G	-vol-	.	.	.	.	.	.	8b-X	-vol-
=12	=12	=12	=12	=12	=12	=12	=12	=12	=12
2A	-ges-	1r	.	2d]	.	1e	-si>	2a	-ges-
2AA	-si>	.	.	2c#X	-si>	.	.	2a	-si>
1r	.	4r	.	4r	.	4r	.	4r	.
.	.	4G	Le	4B	Le	4g	Le	4dd	Le
.	.	4B	tue	4d	tue	4g	tue	4b	tue
.	.	[4d	dol-	[4D	dol-	[4f#X	dol-	[4a	dol-
=13	=13	=13	=13	=13	=13	=13	=13	=13	=13
1r	.	8d]	.	8D]	.	8f#]	.	8a]	.
.	.	8d	-ci	8D	-ci	8f#i	-ci	8a	-ci
.	.	4G	fa-	4d	fa-	4g	fa-	4b-X	fa-
.	.	4A	-vil-	2c#X	-vil-	2e	-vil-	2a	-vil-
.	.	4A	-le,	.	.	.	.	.	.
4r	.	1r	.	4d	-le,	4f#X	-le,	4a	-le,
4C	Le	.	.	4e	<Le	4g	<Le	4cc	<Le
4E	tue	.	.	4e	tue	4g	tue	4bnXi	tue
[4G	dol-	.	.	[4d	dol-	[4g	dol-	[4b	dol-
=14	=14	=14	=14	=14	=14	=14	=14	=14	=14
8G]	.	2r	.	8d]	.	8g]	.	8b]	.
8G	-ci	.	.	8d	-ci	8g	-ci	8b	-ci
4C	fa-	.	.	4c	fa-	4g	fa-	4ee	fa-
2D	-vil-	4d	Io	2A	-vil-	2f#X	-vil-	2dd	-vil-
.	.	8d	va-	.	.	.	.	.	.
.	.	8d	-gheg-	.	.	.	.	.	.
2GG	-le,	4d	-giar	1B	-le,>	1g	-le>	2b	-le,>
.	.	4B	po-	.	.	.	.	.	.
4G	Io	2e	-tes-	.	.	.	.	4b	Io
8G	va-	.	.	.	.	.	.	8b	va-
8G	-gheg-	.	.	.	.	.	.	8b	-gheg-
=15	=15	=15	=15	=15	=15	=15	=15	=15	=15
4G	-giar	2d	-si	8r	.	2r	.	4b	-giar
.	.	.	.	8d	Io	.	.	.	.
4F	po-	.	.	8d	va-	.	.	4a	po-
.	.	.	.	8d	-gheg-	.	.	.	.
1B-X	-tes-	2r	.	4d	-giar	4f	Io	1dd	-tes-
.	.	.	.	4B-X	po-	8f	va-	.	.
.	.	.	.	.	.	8f	-gheg-	.	.
.	.	2r	.	1f	-tes-	4f	-giar	.	.
.	.	.	.	.	.	4d	po-	.	.
2F	-si	4r	.	.	.	2a	-tes-	2cc	-si
.	.	[4f	Mil-	.	.	.	.	.	.
=16	=16	=16	=16	=16	=16	=16	=16	=16	=16
1r	.	4f]	.	1c	-si,	1g	-si	4r	.
.	.	8e	-le	.	.	.	.	2cc	Mil-
.	.	8d	bel-	.	.	.	.	.	.
.	.	4e	-lez-	.	.	.	.	.	.
.	.	4c	-ze	.	.	.	.	8b	-le
.	.	.	.	.	.	.	.	8a	bel-
4r	.	1d	tue	2r	.	2r	.	4b	-lez-
2G	Mil-	.	.	.	.	.	.	4g	-ze
.	.	.	.	4r	.	4r	.	2a	tue,
8F	-le	.	.	[4d	Mil-	4a	con	.	.
8E	bel-	.	.	.	.	.	.	.	.
=17	=17	=17	=17	=17	=17	=17	=17	=17	=17
4F	-lez-	2r	.	4d]	.	4.f	lu-	2r	.
4D	-ze	.	.	8c	-le	.	.	.	.
.	.	.	.	8B	bel-	8d	-ci	.	.
2E	tue,	4r	.	4c	-lez-	2g	mil-	4r	.
.	.	4e	con	4G	-ze	.	.	2ee	<Mil-
2r	.	4c	lu-	2A	tue	4e	-le,	.	.
.	.	4A	-ci	.	.	2a	Mil-	8dd	-le
.	.	.	.	.	.	.	.	8cc	bel-
4r	.	4d	mil-	4r	.	.	.	4dd	-lez-
[4E	Mil-	4G	-le,	4e	con	8g	-le	4b	-ze
.	.	.	.	.	.	8f	bel-	.	.
=18	=18	=18	=18	=18	=18	=18	=18	=18	=18
4E]	.	2r	.	2c	lu-	4g	-lez-	2cc	tue,>
8D	-le	.	.	.	.	4e	-ze	.	.
8C	bel-	.	.	.	.	.	.	.	.
4D	-lez-	4r	.	2A	-ci	2f	tue	4r	.
4AA	-ze	2A	Mil-	.	.	.	.	2cc	<Mil-
4C	tue	.	.	4e	mil-	1r	.	.	.
4D	con	8G	-le	4A	-le,	.	.	8b	-le
.	.	8F	bel-	.	.	.	.	8a	bel-
4BB	lu-	4G	-lez-	4r	.	.	.	4.b	-lez-
4GG	-ci	4E	-ze	4G	<con	.	.	.	.
.	.	.	.	.	.	.	.	8g	-ze
=19	=19	=19	=19	=19	=19	=19	=19	=19	=19
2D	mil-	2F	tue	4F	lu-	2r	.	4a	tue>
.	.	.	.	4D	-ci	.	.	4a	con
2D	-le,	4r	.	2A	mil-	4r	.	4f	lu-
.	.	2A	con	.	.	4a	con	4d	-ci
4r	.	.	.	2D	-le,>	4f	lu-	[1dd	mil-
4D	con	4F	lu-	.	.	4d	-ci	.	.
4BB	lu-	4D	-ci	4r	.	[2g	mil-	.	.
4GG	-ci	[4d	mil-	4d	con	.	.	.	.
=20	=20	=20	=20	=20	=20	=20	=20	=20	=20
1D	mil-	4d]	.	4B	lu-	4g]	.	1dd]	.
.	.	8cL	.	4A	-ci	8f#XL	.	.	.
.	.	8BJ	.	.	.	8eJ	.	.	.
.	.	2A	.	2d	mil-	2f#X	.	.	.
[1GGl	-le.	[1Gl	-le.	[1dl	-le.	[1gl	-le.	[1bl	-le.
=21	=21	=21	=21	=21	=21	=21	=21	=21	=21
0GG]	.	0G]	.	0d]	.	0g]	.	0b]	.
==	==	==	==	==	==	==	==	==	==
*-	*-	*-	*-	*-	*-	*-	*-	*-	*-
!!!system-decoration: [*]
!!!RDF**kern: i = editorial accidental
!!!RDF**kern: l = terminal long
!!!ENC: Emiliano Ricciardi
!!!END: 2017/11
!!!EED: Deutsch, Catherine
!!!EEV: 2018/07/13
!!!YEC: Copyright 2018 Emiliano Ricciardi, All Rights Reserved
!!!ONB: Translated from MusicXML on 2018/07/13 and edited by Craig Stuart Sapp
!!@@BEGIN:	VERSEDATA
!!@SOLERTI:	560
!!@CATALOGNUM:	Trm0560
!!@LAST_MODIFIED: 2020/07/12
!!@TITLE:		Tarquinia, se rimiri
!!@GENRE:		madrigale
!!@MANUSRC:	A<sub>3</sub>, C, E<sub>1</sub>, E<sub>7</sub>, F<sub>2</sub>, V<sub>8</sub>, V<sub>9</sub>, V<sub>13/E1</sub>
!!@PRINTSRC:	8, 9, 11, 12, 13, 15, 20, 24, 33, 67, 141, 145, 166, 169
!!@@BEGIN:	VERSES
!!@ABOUTIT:	A la signora Tarquinia Molza la quale studiando la sfera andava la sera a contemplar le stelle.
!!@ABOUTEN:	To lady Tarquinia Molza who, studying the globe, went to contemplate the stars at night.
!!@EDITOR:	Solerti, Angelo
!!@EDITION_TITLE: Le Rime di Torquato Tasso
!!@EDITION_LOC:	Bologna
!!@EDITION_PUB:	Romagnoli-Dall’Acqua
!!@EDITION_DATE:  1898-1902
!!@EDITION_VOL:	3
!!@EDITION_PAGE:  79
!!@TRANSLATOR:	Emiliano Ricciardi and Amyrose McCue Gill
!!@VERSE:
!!	Tarquinia, se rimiri
!!	I bei celesti giri,
!!	Il cielo esser vorrei;
!!	Perché ne gli occhi miei
!!	Fisso tu rivolgessi
!!	Le tue dolci faville,
!!	Io vagheggiar potessi
!!	Mille bellezze tue con luci mille.
!!@TVERSE:
!!	Tarquinia, if I look upon
!!	The beautiful blue spheres,
!!	The sky I wish to be;
!!	So that to my eyes
!!	Raptly you may turn
!!	Your sweet sparks,
!!	And I may long for
!!	Your thousand beauties with a thousand 	lights.
!!@@END:		VERSES
!!@OTHER_CRIT_ED:   Torquato Tasso, <i>Rime d’amore (secondo il codice
!!		Chigiano L VIII 302)</i>, eds. Franco Gavazzeni and
!!		Vercingetorige Martignone, vol. 4 of <i>Edizione
!!		Nazionale delle opere di Torquato Tasso</i>
!!		(Alessandria: Edizioni Dell’Orso, 2004), 171.
!!@ATTRIBUTION_ABOUT:	Secure
!!		<br>
!!		Among other authoritative sources (see Literary
!!		Sources), this poem appears in the autograph Chigiano
!!		L.VIII.302 (Biblioteca Vaticana, Rome), compiled
!!		around 1584&ndash;85.
!!@DATING:	In or before 1571
!!		<br>
!!		The earliest datable appearance of this poem is in a musical setting by Ferrarese composer Luzzasco Luzzaschi published in 1571 (see Musical Settings). In this setting, the text is subtantially different than in later musical and literary sources (see Literary Variants).
!!@DEDICATEE:	Molza, Tarquinia Molza
!!@DEDICATEE_INFO:	(1542-1617)
!!@COMMENTARY:
!!@@END:		VERSEDATA
!!@@BEGIN:	SETTING
!!@CATALOGNUM:	Trm0560p
!!@RIMETITLE:	Tarquinia, se rimiri
!!@SETTINGTITLE:	Mentre, mia stella, miri
!!@SOLERTI:	560
!!@COMPOSER:	Spano, Donato Antonio
!!@PRINCEPSTITLE:	Il primo libro de madrigali a cinque voci
!!@PRINCEPSLOC:	Napoli
!!@NORMLOC:	Naples
!!@NORMPUB:	Bonino
!!@NORMPUBSHORT:	Bonino
!!@PRINCEPSPUB:	Bonino
!!@PRINCEPSYEAR:	1608
!!@PRINCEPSRISM:	S 4049
!!@REPRINTS:	
!!@OVOICES:	5
!!@EXTANTVOICES:	5
!!@PARTBOOKS:	
!!@EXTPARTBOOKS:	
!!@OCLEFS:	C2,C3,C4,C4,F4
!!@OMENSURATION:	Cut-C
!!@OKEYSIG:	-
!!@FINAL:	G
!!@TIMPEDITOR:	Deutsch, Catherine
!!@NOTE:		
!!@@END:		SETTING
